X: 1
T: Phoenix, The
C: Dave Hennessy
M: 4/4
L: 1/8
R: reel
K: Dmaj
fAdf edce|BAGB AGFA|fAdf edce|BAGB A3f|
faaf edce|BAGB AGFE|D3d dAdf|1 edce d2ag:|2 edce d2z2||
|:FBBA B3f|fedf edce|FBBA Bcde|fdef decd|
B2FB B2FB|B2dB cBAB|FBBA Bcde|1 fedc d2z2:|2 fedc d2ag||
%Variation for Bar 4 of B-part
|~d2~c2 ~B2Ac|
%Variation for Bar 7 of A-part
|Dccd dAdf|
